X: 38815
T: Suited Up
R: jig
M: 6/8
K: Aminor
|:A3 GAA|FAA EAB|A3 ecA|fec B^GE|
A3 GAA|FAA EAC|D_B,D ECE|1 FGA ^GE^G:|2 DAD E^GB||
|:^c2d ed^c|B2^c d^cB|^c2d ed^c|^fdf ^gea|
^c2d ed^c|B2^c d^cB|1 A^G^F GE^C|DE^F ^GAB:|2 _B2c dcB|AFD E3||

